Adwaita++/actions/22/edit-copy.svg

<svg fill="none" height="22" viewBox="0 0 22 22" width="22" xmlns="http://www.w3.org/2000/svg">
  <g fill="#444">
    <path d="m9.68261 9.6863v9.3137h6.68249l2.6608-2.6556-.0296-6.6581h-9.31383z"/>
    <path d="m3.00007 3.00376v10.65024l5.34603.0417v-5.34599h4.0095l-.0417-5.34603h-9.3139.00001z"/>
  </g>
</svg>

<svg xmlns="http://www.w3.org/2000/svg" fill="none" width="22" height="22" viewBox="0 0 22 22">
 <path fill="#444" d="M9.68261 9.6863V19H16.3651L19.0259 16.3444L18.9963 9.6863H9.68247V9.6863H9.68261Z"/>
 <path fill="#444" d="M3.00007 3.00376V13.654L8.3461 13.6957V8.34971H12.3556L12.3139 3.00368H3H3.00001L3.00007 3.00376Z"/>
</svg>
